app/src/content/assets/svg/social.google.svg

﻿<?xml version="1.0" encoding="utf-8"?>
<!DOCTYPE svg PUBLIC "-//W3C//DTD SVG 1.1//EN" "http://www.w3.org/Graphics/SVG/1.1/DTD/svg11.dtd">
<svg xmlns="http://www.w3.org/2000/svg" xmlns:xlink="http://www.w3.org/1999/xlink" version="1.1" baseProfile="full" width="76" height="76" viewBox="0 0 76.00 76.00" enable-background="new 0 0 76.00 76.00" xml:space="preserve">
	<path fill-opacity="1" stroke-width="0.2" stroke-linejoin="round" d="M 50.6667,19L 53.8333,19L 53.8333,25.3333L 60.1667,25.3333L 60.1667,28.5L 53.8333,28.5L 53.8333,34.8333L 50.6667,34.8333L 50.6667,28.5L 44.3333,28.5L 44.3333,25.3333L 50.6667,25.3333L 50.6667,19 Z M 41.1667,49.0833C 41.1667,53.4556 35.85,57 29.2917,57C 22.7333,57 17.4167,53.4556 17.4167,49.0833C 17.4167,44.8812 22.3275,41.4438 28.5318,41.1826L 28.8958,41.1667C 30.4792,41.1667 30.0833,39.5833 27.5243,36.2372C 23.5622,35.4204 20.1875,33.0998 20.1875,28.8958C 20.1875,24.3372 24.0861,19.4091 28.5471,19.0314L 28.5,19L 29.2917,19L 41.1667,19C 41.1667,19 37.597,20.7848 36.1525,22.3446C 38,23.75 39.1875,25.2893 39.1875,27.3125C 39.1875,30.9138 36.3675,33.9036 33.25,35.2292C 32.2188,38.5578 39.5833,44.3333 39.1469,44.6653C 40.4222,45.9272 41.1667,47.4473 41.1667,49.0833 Z M 28.5,43.9375C 23.2533,43.9375 22.1666,46.8144 22.1666,49.875C 22.1667,52.25 25.3333,53.4375 29.2917,53.4375C 34.5383,53.4375 37.6041,52.1439 37.6041,49.0833C 37.6041,46.0228 34.8333,44.3333 28.5,43.9375 Z M 28.5,21.375C 25.0022,21.375 24.5416,24.2106 24.5416,27.7084C 24.5416,31.2062 26.1897,34.0417 29.6875,34.0417C 33.1853,34.0417 34.0416,31.2062 34.0416,27.7084C 34.0416,24.2106 31.9978,21.375 28.5,21.375 Z "/>
</svg>

<svg xmlns="http://www.w3.org/2000/svg" baseProfile="full" width="76" height="76" viewBox="0 0 76.00 76.00"><path d="M50.667 19h3.166v6.333h6.334V28.5h-6.334v6.333h-3.166V28.5h-6.334v-3.167h6.334V19zm-9.5 30.083c0 4.373-5.317 7.917-11.875 7.917-6.559 0-11.875-3.544-11.875-7.917 0-4.202 4.91-7.64 11.115-7.9l.364-.016c1.583 0 1.187-1.584-1.372-4.93-3.962-.817-7.337-3.137-7.337-7.341 0-4.559 3.9-9.487 8.36-9.865L28.5 19h12.667s-3.57 1.785-5.014 3.345c1.847 1.405 3.035 2.944 3.035 4.968 0 3.6-2.82 6.59-5.938 7.916-1.031 3.329 6.333 9.104 5.897 9.436 1.275 1.262 2.02 2.782 2.02 4.418zM28.5 43.938c-5.247 0-6.333 2.876-6.333 5.937 0 2.375 3.166 3.563 7.125 3.563 5.246 0 8.312-1.294 8.312-4.355 0-3.06-2.77-4.75-9.104-5.145zm0-22.563c-3.498 0-3.958 2.836-3.958 6.333 0 3.498 1.648 6.334 5.145 6.334 3.498 0 4.355-2.836 4.355-6.334 0-3.497-2.044-6.333-5.542-6.333z"/></svg>
